X:10
T:Scottisch  Titi (Christoph Peron)
M:4/4
L:1/8
K:G
B2c2 d2dg|eged B2GA|BGAB AEFG|AGAB D4|
B2c2 d2dg|eged B2GA|BGAB AEFG|1 ABAF G4:|2ABAF G2cB||
|:A2EF G3E|DEDC B,4|d2d2 e2Ac|de/d/cd e2cB|
A2EF G3E|DEDC B,4|d2de A2Ac|1 BdGB A2cB:|2  BdGB A4||
